!!!COM: Haydn, Franz Joseph
!!!OTL: String Quartet in B-flat Major
!!!OPS: Opus 50
!!!ONM: No. 1
!!!OMD: Poco allegretto
!!!OMV: 3
!!!SCT: H III:44
!!!SCA: Thematisch-bibliographisches Werkevererzeichnis (A. van Hoboken)
!!!YOR: Richault Edition, volume 6
!!!ENC: Frances Bennion
!!!CDT: 1732/3/31/-1809/5/31/
!!!CNT: Oesterreich
!!!YEC: Copyright (c) 1994, 2000 Center for Computer Assisted Research in the Humanities
!!!YEM: Rights to all derivative editions reserved.
!!!YEM: Refer to licensing agreement for further details.
!!!YEN: United States of America
**kern	**kern	**kern	**kern
*k[b-e-]	*k[b-e-]	*k[b-e-]	*k[b-e-]
*B-:	*B-:	*B-:	*B-:
*clefF4	*clefC3	*clefF	*clefF
*M3/4	*M3/4	*M3/4	*M3/4
2r	2r	2r	4r
.	.	.	4r
4r	4r	4r	4f
=1	=1	=1	=1
4r	4r	4r	4b-
4r	4r	4r	4b-
4B-	4f	4f	4dd
=2	=2	=2	=2
4e-	2f	4c	4a
4d	.	4d	4b-
4r	4r	4r	4f
=3	=3	=3	=3
4r	4r	4b-	4dd
4r	4r	4b-	4dd
[4B-	4B-	4dd	4gg
=4	=4	=4	=4
4B-]	2c	4g	4ee
4A	.	4a	4ff
[4g	4r	[4b-	4ee-
=5	=5	=5	=5
4g]	2.r	4b-]	4cc#
4f#	.	4a	4dd
4f	.	4a-	8b
.	.	.	16a
.	.	.	16b
=6	=6	=6	=6
4e	2.r	4g	4cc
4e-	.	4g-	8a
.	.	.	16g
.	.	.	16a
4d	.	4f	4b-
=7	=7	=7	=7
4c	4f	4e-	4a
4A	4f	4cc	4ee-
8B-	4f	4b-	8dd
8d	.	.	8b-
=8	=8	=8	=8
4f	4f	4a	4f
4r	2r	2r	2r
4F	.	.	.
=9	=9	=9	=9
4B-	4r	4r	4r
4B-	4r	4r	4r
4d	4f	4f	4b-
=10	=10	=10	=10
4A	2f	4cc	4ee-
4B-	.	4b-	4dd
4F	4r	4r	4r
=11	=11	=11	=11
4d	4r	4r	4r
4d	4r	4r	4r
4g	4b-	4dd	[4b-
=12	=12	=12	=12
4e	4g	2cc	4b-]
4f	4f	.	4a
4e-	4r	4g	[4gg
=13	=13	=13	=13
4c#	2.r	4b-	4gg]
4d	.	4a	4ff#
8B	.	4a-	4ff
16A	.	.	.
16B	.	.	.
=14	=14	=14	=14
4c	2.r	4g	4ee
8A	.	4g-	4ee-
16G	.	.	.
16A	.	.	.
4B-	.	4f	4dd
=15	=15	=15	=15
4A	4r	4f	4cc
4e-	4f	4c	4a
8d	4f	4B-	8b-
8B-	.	.	8dd
=16	=16	=16	=16
4F	4f	4A	4ff
4r	4r	4r	4r
4r	4r	4r	4f
=17	=17	=17	=17
2.r	4f	4a	4ff
.	4r	4a	4ff
.	4f	4cc	4aa
=18	=18	=18	=18
2.r	4b-	4dd-	4ee
.	4a	4cc	4ff
.	4r	4r	4f
=19	=19	=19	=19
4r	4r	4cc	4ee-
4r	4r	4cc	4ee-
4c	4e-	4ee-	4gg
=20	=20	=20	=20
4f	4a-	4b	4dd
4e-	4g	4cc	4ee-
4r	4r	4ee-	4gg
=21	=21	=21	=21
4e-	2f	4a	4cc
4d	.	4b-	4dd
4BB-	[4dd	4dd	4ff
=22	=22	=22	=22
4G	4dd]	2b-	4ff
4G	4g	.	4ee-
4B-	[4b-	4f	4dd
=23	=23	=23	=23
4E-	4b-]	2g	4dd
4E-	4e-	.	4cc
4G	4c	4e	[4b-
=24	=24	=24	=24
2F	4c	4f	4b-]
.	8f	4r	4a
.	8e-	.	.
4r	8d	4f	4r
.	8c	.	.
=25	=25	=25	=25
8B-	2d	4b-	2.r
8A	.	.	.
8G	.	4b-	.
8F	.	.	.
8E-	4f	4dd	.
8D	.	.	.
=26	=26	=26	=26
4C	4e-	4a	2.r
4BB-	4d	4b-	.
4r	4r	4f	.
=27	=27	=27	=27
2.r	8b-	4dd	[2.b-
.	8a	.	.
.	8g	4dd	.
.	8f	.	.
.	8e	4gg	.
.	8d	.	.
=28	=28	=28	=28
4r	4c	4ee	4b-]
4r	4f	4ff	4a
4G	[4g	4ee-	[4bb-
=29	=29	=29	=29
4A	4g]	4cc#	4bb-]
4D	4f#	4dd	4aa
4G	4f	8b	4aa-
.	.	16a	.
.	.	16b	.
=30	=30	=30	=30
4C	4e	4cc	4gg
4F	4e-	8a	4gg-
.	.	16g	.
.	.	16a	.
4BB-	4d	4b-	4ff
=31	=31	=31	=31
4E-	4g	4cc	4ee-
4F	4f	4b-	4dd
4FF	4e-	4a	4cc
=32	=32	=32	=32
4BB-	4d	4b-	4b-
2r	2r	2r	4r
.	.	.	4f
=33	=33	=33	=33
[2.BB-	2.d	2.f	4b-
.	.	.	4b-
.	.	.	4dd
=34	=34	=34	=34
2BB-]	4e-	4g	4a
.	4d	4f	4b-
4r	4r	4r	4ff
=35	=35	=35	=35
2.F	2e- 2A	4f	4cc
.	.	8g-	4ee-
.	.	8g	.
.	4e-	8a-	4cc
.	.	8a	.
=36	=36	=36	=36
4BB-	4d	4b-	4b-
4r	4r	4r	4r
4r	4r	4r	8fff
.	.	.	8r
=37	=37	=37	=37
2.r	2.r	2.r	8ddd
.	.	.	8r
.	.	.	8bb-
.	.	.	8r
.	.	.	8ff
.	.	.	8r
=38	=38	=38	=38
4r	4r	4r	8dd
.	.	.	8r
4r	4r	4r	8b-
.	.	.	8r
4d	4f	4a-	8b
.	.	.	8r
=39	=39	=39	=39
4e-	4e-	4g	4cc
4e-	4g	4g	4cc
4e-	4e-	4g	4cc
=40	=40	=40	=40
4e-	4c	4g	4cc
2r	2r	2r	4r
.	.	.	8eee-
.	.	.	8r
=41	=41	=41	=41
2.r	2.r	2.r	8ccc
.	.	.	8r
.	.	.	8aa
.	.	.	8r
.	.	.	8ff
.	.	.	8r
=42	=42	=42	=42
4r	4r	4r	8ee-
.	.	.	8r
4r	4r	4r	8cc
.	.	.	8r
4F	4c	4e-	4a
=43	=43	=43	=43
4BB-	4B-	4d	4b-
4D	4B-	4d	4b-
4F	4B-	4d	4b-
=44	=44	=44	=44
4BB-	4B-	4d	4b-
4r	4r	4r	4r
4r	4f#	4a	4r
=45	=45	=45	=45
2.r	4g	4b-	4r
.	4g	4b-	4dd
.	4g	4b-	4ee-
=46	=46	=46	=46
2.r	4g	4b-	4ee-
.	4r	4r	4ee-
.	4g	4b	4ee-
=47	=47	=47	=47
2.r	4a-	4cc	4r
.	4a-	4cc	4ee
.	4a-	4cc	4ff
=48	=48	=48	=48
4r	4a-	4cc	4ff
4r	4r	2r	4ff
4A	4c#	.	4ff
=49	=49	=49	=49
4B-	4d	4r	2.r
4B-	4d	4ff#	.
4B-	4d	4gg	.
=50	=50	=50	=50
4B-	4d	4gg	4r
4B	4d	4gg	4gg
4c	4e-	4gg	4aa-
=51	=51	=51	=51
4c	4e-	4gg	4aa-
4d	[2b-	4ff	4aa-
4e-	.	4ee-	4gg
=52	=52	=52	=52
4e-	4b-]	4ee-	4gg
4e	4dd-	4gg	4bb-
4f	4cc	4ff	4aa
=53	=53	=53	=53
4f	4cc	4ff	4aa
2f	4b-	4dd-	4ee
.	4a	4cc	4ff
=54	=54	=54	=54
4f	4a	4cc	4ff
2f	4b-	4dd-	4ee
.	4a	4cc	4ff
=55	=55	=55	=55
4f	4a	4cc	4ff
4f	4a	4cc	4ff
4f	4a	4cc	4ff
=56	=56	=56	=56
4f	4a	4cc	4ff
2r	2r	4r	4.r
.	.	8ff	.
.	.	8r	8fff
=57	=57	=57	=57
2.r	2.r	8dd	8r
.	.	8r	8ddd
.	.	8b-	8r
.	.	8r	8bb-
.	.	8f	8r
.	.	8r	8ff
=58	=58	=58	=58
4r	4r	8d	8r
.	.	8r	8dd
4r	4r	8B-	8r
.	.	8r	8b-
4DD	4f#	8c	8r
.	.	8r	8a
=59	=59	=59	=59
8EE-	4g	4B-	4g
8GG	.	.	.
8BB-	4e-	4B-	4g
8E-	.	.	.
8BB-	4e-	4B-	4g
8GG	.	.	.
=60	=60	=60	=60
4EE-	4e-	4B-	4g
2r	2r	4r	4.r
.	.	8ee-	.
.	.	8r	8eee-
=61	=61	=61	=61
2.r	2.r	8cc	8r
.	.	8r	8ccc
.	.	8a	8r
.	.	8r	8aa
.	.	8f	8r
.	.	8r	8ff
=62	=62	=62	=62
4r	2r	8e-	8r
.	.	8r	8ee-
4r	.	8c	8r
.	.	8r	8cc
4F	4e-	8A	8r
.	.	8r	8a
=63	=63	=63	=63
8BB-	4d	4B-	4b-
8D	.	.	.
8F	4B-	4d	4b-
8B-	.	.	.
8F	4B-	4d	4b-
8D	.	.	.
=64	=64	=64	=64
4BB-	4B-	4d	4b-
2r	2r	2r	2r
==	==	==	==
*-	*-	*-	*-
!!!RWG1: This file contains only pitch and duration data.
!!!RWG2: Transposing instruments are not transposed.
!!!RWG3: Spines may have incompatible meters.
!!!RWG4: Durations of rests and tied notes may be interpreted.
!!!RWG: Key is interpreted using the Humdrum key tool.
!!!GTL: 6 Quartetti ("Prussian")
!!!AFT: stage1
!!!END: 1997/04/15
!!!KEY: 3316479678
!!!EMD: Converted from MuseData to Humdrum Dec 16, 2000, by Andreas Kornstaedt using muse2kern.
!!!EMD: Manual editing by Craig Sapp, Nov 2001
